X: 305670
M: 2/4
L: 1/16
K: Em	% and G in the 3rd strain
b>b |\
b3g ee^de | f3d B>Bc>d | e>de>f g>ba>g | f2f2 f2b>b |\
b3g e>e^d>e | f3d B>Bc>d | e2g2 fc'af | e2e2 e2 H|]
f>g |\
ab c'4 ba | gfe3 gfe | ^d>BB>B B2cd | eBgf e2f>g |\
ab c'4 ba | gfe3 gfe | ^dBBB B2dd | e2g2 "^D.C."e2 |]
z2 |\


